dist/assets/uwm-icons/icon_drive_selected.svg

<?xml version="1.0" encoding="UTF-8"?>
<svg width="32px" height="32px" viewBox="0 0 32 32" version="1.1" xmlns="http://www.w3.org/2000/svg" xmlns:xlink="http://www.w3.org/1999/xlink">
    <!-- Generator: Sketch 48.2 (47327) - http://www.bohemiancoding.com/sketch -->
    <title>icon_drive_selected</title>
    <desc>Created with Sketch.</desc>
    <defs></defs>
    <g id="Icons" stroke="none" stroke-width="1" fill="none" fill-rule="evenodd">
        <g id="icon_drive_selected">
            <rect id="Rectangle" x="4" y="4" width="24" height="24"></rect>
            <path d="M23.8156518,18.450505 C23.3880646,19.1533504 21.7495109,19.2987056 19.9688142,18.9837694 C19.541227,18.6443119 19.5887045,18.2566981 19.9450755,17.9417619 C20.847438,17.505401 21.7969885,17.1177872 22.6043959,16.8267814 C23.1506769,16.7298779 23.6732192,16.8267814 23.8156518,17.2631423 L23.8156518,18.450505 Z M20.1587243,13.337371 C20.6575278,13.337371 21.0848256,13.7492106 21.0848256,14.282475 L19.2326231,14.282475 C19.2326231,13.7492106 19.6602103,13.337371 20.1587243,13.337371 Z M18.6151258,14.282475 L10.3991979,14.282475 C10.8030463,13.0466606 11.135389,11.8590025 11.538948,10.647414 C12.3700942,8.99975996 20.6337891,8.99975996 21.4649353,10.647414 C21.8682047,11.8590025 22.2008369,13.0466606 22.6043959,14.282475 L21.7023229,14.282475 C21.7023229,13.4100486 21.0136093,12.7074986 20.1587243,12.7074986 C19.3038394,12.7074986 18.6151258,13.4100486 18.6151258,14.282475 Z M14.293513,20.7525528 L18.7338196,20.7525528 L18.7338196,18.8623447 L14.293513,18.8623447 L14.293513,20.7525528 Z M13.035069,18.9837694 C11.2540828,19.2987056 9.61552921,19.1533504 9.18823149,18.450505 L9.18823149,17.2631423 C9.33066406,16.8267814 9.85320634,16.7298779 10.3991979,16.8267814 C11.2066053,17.1177872 12.1564453,17.505401 13.035069,17.9417619 C13.4148892,18.2566981 13.4623668,18.6443119 13.035069,18.9837694 Z M25.098124,14.0886681 L24.0530394,14.0886681 L22.3432695,9.2904703 C20.3011569,7.56984323 12.7024369,7.56984323 10.6606138,9.2904703 L8.95055436,14.0886681 L7.9060488,14.0886681 C7.31229024,14.282475 6.64731538,15.6878705 7.21733518,16.1242314 L8.28557951,16.1242314 L8.07193064,16.9239803 C8.07193064,19.0322211 8.09566941,21.140462 8.09566941,23.224477 C8.09566941,23.6608379 8.42830158,24 8.83186055,24 L11.3730661,24 C11.7763356,24 12.1327066,23.6608379 12.1327066,23.224477 L12.1327066,22.2551471 C15.0531534,22.2793729 17.9504404,22.2793729 20.8711767,22.2551471 L20.8711767,23.224477 C20.8711767,23.6608379 21.2275477,24 21.6311066,24 L24.1717332,24 C24.5755817,24 24.9079244,23.6608379 24.9079244,23.224477 C24.9079244,21.140462 24.9316631,19.0322211 24.9316631,16.9239803 L24.7180143,16.1242314 L25.7865481,16.1242314 C26.3562784,15.6878705 25.6675648,14.282475 25.098124,14.0886681 Z" id="Fill-265" fill="#23B775"></path>
            <rect id="Rectangle-2-Copy-3" stroke="#23B774" stroke-width="1.5" x="0.75" y="0.75" width="30.5" height="30.5"></rect>
        </g>
    </g>
</svg>

<svg width="32" height="32" xmlns="http://www.w3.org/2000/svg"><g fill="none" fill-rule="evenodd"><path d="M4 4h24v24H4z"/><path d="M23.816 18.45c-.428.703-2.066.849-3.847.534-.428-.34-.38-.727-.024-1.042a28.455 28.455 0 0 1 2.66-1.115c.546-.097 1.068 0 1.21.436v1.188zm-3.657-5.113c.499 0 .926.412.926.945h-1.852c0-.533.427-.945.926-.945zm-1.544.945H10.4c.404-1.235.736-2.423 1.14-3.635.831-1.647 9.095-1.647 9.926 0 .403 1.212.736 2.4 1.14 3.635h-.903c0-.872-.688-1.575-1.543-1.575s-1.544.703-1.544 1.575zm-4.321 6.47h4.44v-1.89h-4.44v1.89zm-1.259-1.768c-1.78.315-3.42.17-3.847-.533v-1.188c.143-.436.665-.533 1.211-.436a25.72 25.72 0 0 1 2.636 1.115c.38.315.427.702 0 1.042zm12.063-4.895h-1.045l-1.71-4.799c-2.042-1.72-9.64-1.72-11.682 0l-1.711 4.8H7.906c-.594.193-1.259 1.599-.689 2.035h1.069l-.214.8c0 2.108.024 4.216.024 6.3 0 .437.332.776.736.776h2.541c.403 0 .76-.34.76-.776v-.969c2.92.024 5.817.024 8.738 0v.97c0 .436.357.775.76.775h2.54c.405 0 .737-.34.737-.776 0-2.084.024-4.192.024-6.3l-.214-.8h1.069c.57-.436-.12-1.842-.689-2.035z" fill="#23B775"/><path stroke="#23B774" stroke-width="1.5" d="M.75.75h30.5v30.5H.75z"/></g></svg>
